app/src/main/assets/symbols/shopping/gift.svg

<?xml version="1.0" encoding="UTF-8" standalone="no"?>
<svg
   xmlns:dc="http://purl.org/dc/elements/1.1/"
   xmlns:cc="http://creativecommons.org/ns#"
   xmlns:rdf="http://www.w3.org/1999/02/22-rdf-syntax-ns#"
   xmlns:svg="http://www.w3.org/2000/svg"
   xmlns="http://www.w3.org/2000/svg"
   id="svg2"
   viewBox="0 0 16 16"
   height="16"
   width="16"
   version="1.1">
   <metadata id="metadata8">
    <rdf:RDF>
      <cc:Work rdf:about="">
        <dc:format>image/svg+xml</dc:format>
        <dc:type rdf:resource="http://purl.org/dc/dcmitype/StillImage"/>
        <dc:title/>
      </cc:Work>
    </rdf:RDF>
  </metadata>
  <defs id="defs6"/>
  <rect width="16" height="16" x="0" y="0" id="canvas" style="fill:none;stroke:none;visibility:hidden"/>
  <path d="M 4.375,0.5 C 3.5,0.5 2.625,1.1125001 2.625,2.25 2.625,3.386625 3.144625,4 4.28125,4 l 2.5625,0 0.25,0 2.5625,0 C 10.792,4 11.375,3.4169999 11.375,2.28125 11.374125,1.14375 10.499999,0.5 9.625,0.5 8.2985,0.5 7.333375,1.3032501 7,2.46875 6.66575,1.3032501 5.730375,0.5 4.375,0.5 z m 0,0.875 c 1.416625,0 1.656375,1.120875 1.75,1.75 l -1.75,0 C 3.455375,3.125 3.5,2.287625 3.5,2.25 3.5,2.212375 3.45538,1.375 4.375,1.375 z m 5.25,0 c 0.874999,0 0.875,0.837375 0.875,0.875 0,0.037625 0.04462,0.875 -0.875,0.875 l -1.75,0 C 7.96863,2.495875 8.206625,1.375 9.625,1.375 z M 4,5 C 3,5 2,6 2,7 l 0,1.75 4.25,0 L 6.25,5 4,5 z m 3.75,0 0,3.75 4.25,0 L 12,7 C 12,6 11,5 10,5 L 7.75,5 z M 2,10.25 2,12 c 0,1 1,2 2,2 l 2.25,0 0,-3.75 -4.25,0 z m 5.75,0 0,3.75 2.25,0 c 1,0 2,-1 2,-2 l 0,-1.75 -4.25,0 z" id="gift" style="fill:#ac39ac;fill-opacity:1" transform="translate(1,1)"/>
</svg>

<?xml version="1.0" encoding="UTF-8"?>
<svg version="1.1" viewBox="0 0 16 16" xmlns="http://www.w3.org/2000/svg" xmlns:cc="http://creativecommons.org/ns#" xmlns:dc="http://purl.org/dc/elements/1.1/" xmlns:rdf="http://www.w3.org/1999/02/22-rdf-syntax-ns#">
<metadata>
<rdf:RDF>
<cc:Work rdf:about="">
<dc:format>image/svg+xml</dc:format>
<dc:type rdf:resource="http://purl.org/dc/dcmitype/StillImage"/>
<dc:title/>
</cc:Work>
</rdf:RDF>
</metadata>
<rect width="16" height="16" fill="none" visibility="hidden"/>
<path transform="translate(1,1)" d="m4.375 0.5c-0.875 0-1.75 0.6125-1.75 1.75 0 1.1366 0.51962 1.75 1.6562 1.75h2.5625 0.25 2.5625c1.1358 0 1.7188-0.583 1.7188-1.7188-8.75e-4 -1.1375-0.875-1.7812-1.75-1.7812-1.3265 0-2.2916 0.80325-2.625 1.9688-0.33425-1.1655-1.2696-1.9688-2.625-1.9688zm0 0.875c1.4166 0 1.6564 1.1209 1.75 1.75h-1.75c-0.91962 0-0.875-0.83738-0.875-0.875s-0.04462-0.875 0.875-0.875zm5.25 0c0.875 0 0.875 0.83738 0.875 0.875s0.04462 0.875-0.875 0.875h-1.75c0.09363-0.62912 0.33162-1.75 1.75-1.75zm-5.625 3.625c-1 0-2 1-2 2v1.75h4.25v-3.75h-2.25zm3.75 0v3.75h4.25v-1.75c0-1-1-2-2-2h-2.25zm-5.75 5.25v1.75c0 1 1 2 2 2h2.25v-3.75h-4.25zm5.75 0v3.75h2.25c1 0 2-1 2-2v-1.75h-4.25z" fill="#ac39ac"/>
</svg>
